X: 1
T: Bumper Squire Jones
M: 6/8
L: 1/8
R: jig
K: Dmaj
A/G/ | FDD D2E | F/G/AF G/A/BA | BEF G2A/G/ |
FED d2e | fed edc | dBe cAc | dDD D2 | f/g/ |
afa dfa | bgb efg | faf ged | cAA A2g |
f/g/af geg | f/g/af geg | fed cBc | dDD D3 |
